public/static/img/user/about.svg

<svg width="24" height="24" viewBox="0 0 24 24" fill="none" xmlns="http://www.w3.org/2000/svg">
<path d="M12 2C17.5229 2 22 6.47714 22 12C22 17.5229 17.5229 22 12 22C6.47714 22 2 17.5229 2 12C2 6.47714 6.47714 2 12 2ZM12 3.90476C7.52905 3.90476 3.90476 7.52905 3.90476 12C3.90476 16.471 7.52905 20.0952 12 20.0952C16.471 20.0952 20.0952 16.471 20.0952 12C20.0952 7.52905 16.471 3.90476 12 3.90476ZM12.4762 10.0952C12.5387 10.0952 12.6006 10.1076 12.6584 10.1315C12.7162 10.1554 12.7687 10.1905 12.8129 10.2347C12.8571 10.2789 12.8922 10.3314 12.9161 10.3892C12.9401 10.447 12.9524 10.5089 12.9524 10.5714V17.2381C12.9524 17.3006 12.9401 17.3626 12.9161 17.4203C12.8922 17.4781 12.8571 17.5306 12.8129 17.5748C12.7687 17.619 12.7162 17.6541 12.6584 17.678C12.6006 17.702 12.5387 17.7143 12.4762 17.7143H11.5238C11.4613 17.7143 11.3994 17.702 11.3416 17.678C11.2838 17.6541 11.2313 17.619 11.1871 17.5748C11.1429 17.5306 11.1078 17.4781 11.0839 17.4203C11.0599 17.3626 11.0476 17.3006 11.0476 17.2381V10.5714C11.0476 10.5089 11.0599 10.447 11.0839 10.3892C11.1078 10.3314 11.1429 10.2789 11.1871 10.2347C11.2313 10.1905 11.2838 10.1554 11.3416 10.1315C11.3994 10.1076 11.4613 10.0952 11.5238 10.0952H12.4762ZM12.4762 6.28571C12.5387 6.28571 12.6006 6.29803 12.6584 6.32196C12.7162 6.34589 12.7687 6.38097 12.8129 6.42519C12.8571 6.46941 12.8922 6.5219 12.9161 6.57968C12.9401 6.63745 12.9524 6.69937 12.9524 6.76191V7.71429C12.9524 7.77682 12.9401 7.83874 12.9161 7.89652C12.8922 7.95429 12.8571 8.00678 12.8129 8.051C12.7687 8.09522 12.7162 8.1303 12.6584 8.15423C12.6006 8.17816 12.5387 8.19048 12.4762 8.19048H11.5238C11.4613 8.19048 11.3994 8.17816 11.3416 8.15423C11.2838 8.1303 11.2313 8.09522 11.1871 8.051C11.1429 8.00678 11.1078 7.95429 11.0839 7.89652C11.0599 7.83874 11.0476 7.77682 11.0476 7.71429V6.76191C11.0476 6.69937 11.0599 6.63745 11.0839 6.57968C11.1078 6.5219 11.1429 6.46941 11.1871 6.42519C11.2313 6.38097 11.2838 6.34589 11.3416 6.32196C11.3994 6.29803 11.4613 6.28571 11.5238 6.28571H12.4762Z" fill="white"/>
</svg>

<svg width="24" height="24" fill="none" xmlns="http://www.w3.org/2000/svg"><path d="M12 2c5.523 0 10 4.477 10 10s-4.477 10-10 10S2 17.523 2 12 6.477 2 12 2Zm0 1.905a8.095 8.095 0 1 0 0 16.19 8.095 8.095 0 0 0 0-16.19Zm.476 6.19a.477.477 0 0 1 .476.476v6.667a.475.475 0 0 1-.476.476h-.952a.475.475 0 0 1-.476-.476v-6.667a.475.475 0 0 1 .476-.476h.952Zm0-3.81a.476.476 0 0 1 .476.477v.952a.475.475 0 0 1-.476.476h-.952a.476.476 0 0 1-.476-.476v-.952a.475.475 0 0 1 .476-.476h.952Z" fill="#fff"/></svg>
